lib/flags/m/894.svg

<svg xmlns="http://www.w3.org/2000/svg" fill="none" viewBox="0 0 20 15"><mask id="894_svg__a" width="20" height="15" x="0" y="0" mask-type="alpha" maskUnits="userSpaceOnUse"><path fill="#fff" d="M0 0H20V15H0z"/></mask><g mask="url(#894_svg__a)"><path fill="#F7FCFF" fill-rule="evenodd" d="M0 0H20V15H0V0Z" clip-rule="evenodd"/><path fill="#5EAA22" fill-rule="evenodd" d="M0 0V15H20V0H0Z" clip-rule="evenodd"/><mask id="894_svg__b" width="20" height="15" x="0" y="0" mask-type="alpha" maskUnits="userSpaceOnUse"><path fill="#fff" fill-rule="evenodd" d="M0 0V15H20V0H0Z" clip-rule="evenodd"/></mask><g mask="url(#894_svg__b)"><path fill="#FF8126" d="M16.25 6.25H20V15H16.25z"/><path fill="#272727" d="M12.5 6.25H16.25V15H12.5z"/><path fill="#C51918" d="M8.75 6.25H12.5V15H8.75z"/><path fill="#FF8126" fill-rule="evenodd" d="M13.5095 1.94807C13.8479 2.07246 13.5095 2.26287 13.5095 2.26287C13.5095 2.26287 13.4427 2.18524 13.4427 2.1204C13.4427 2.05557 13.1835 2.1204 13.0499 2.35566C12.9232 2.57862 13.1567 2.57798 13.4021 2.5773C13.4156 2.57727 13.4292 2.57723 13.4427 2.57723C13.5814 2.57723 13.7983 2.56357 14 2.55087C14.1753 2.53982 14.3392 2.5295 14.4303 2.5295C14.6262 2.5295 14.7188 2.5295 14.9772 2.35566C15.1452 2.24266 15.7005 2.10434 16.1134 2.00149C16.3357 1.94613 16.5167 1.90105 16.5738 1.87574C16.7368 1.80341 16.4108 2.18524 16.4108 2.18524C16.4108 2.18524 17.6683 1.67806 17.9202 1.50488C18.0759 1.39788 18.0054 1.4892 17.8902 1.63831C17.819 1.73054 17.7307 1.84488 17.6683 1.94807C17.562 2.12388 17.7785 1.95627 18.019 1.77011C18.1479 1.67037 18.2836 1.5653 18.3803 1.50488C18.6573 1.33169 18.3098 1.80146 18.1571 1.94807C18.0044 2.09468 18.5157 1.94807 18.6927 1.80146C18.823 1.69358 18.704 1.88215 18.6039 2.0409C18.5679 2.09788 18.5344 2.15103 18.5157 2.18524L18.5127 2.19069C18.4442 2.31588 18.4225 2.35566 18.5865 2.35566C18.7529 2.35566 18.1571 2.81882 18.1571 2.81882C18.1571 2.81882 18.3346 2.79065 18.1571 3.09904C18.0525 3.28083 17.543 3.46447 17.1294 3.61357C16.8413 3.71741 16.5998 3.80449 16.5738 3.86253C16.5271 3.96674 16.0631 4.08744 15.8469 4.14369C15.7698 4.16375 15.7242 4.17561 15.7402 4.17561C15.8013 4.17561 15.9027 4.25283 15.7926 4.25283C15.6824 4.25283 15.4889 4.31512 15.4889 4.31512C15.4889 4.31512 15.5907 4.31512 15.4889 4.46024C15.4401 4.52975 15.3546 4.51874 15.2946 4.51102C15.2294 4.50262 15.1944 4.49812 15.2697 4.60535C15.3375 4.70176 15.3624 4.73705 15.3546 4.74733C15.3457 4.759 15.2946 4.73844 15.216 4.73844C15.1459 4.73844 15.0709 4.70841 14.9922 4.67689C14.9052 4.64204 14.8136 4.60535 14.7188 4.60535C14.5456 4.60535 14.7195 4.72798 14.8281 4.80459C14.8326 4.80779 14.8371 4.81091 14.8414 4.81393C14.9383 4.88251 14.8979 4.88238 14.7224 4.88178C14.7047 4.88172 14.6857 4.88165 14.6652 4.88165C14.5564 4.88165 14.4978 4.86977 14.4664 4.8634C14.4334 4.8567 14.4303 4.85608 14.4303 4.88165C14.4303 4.90618 14.3483 4.87203 14.2496 4.83095C14.1474 4.78841 14.0273 4.73844 13.9619 4.73844C13.8333 4.73844 14.2345 5.00369 14.2345 5.00369C14.2345 5.00369 14.0255 4.93612 13.9124 4.88165C13.8481 4.85069 13.9298 4.99675 14.0036 5.1286C14.0596 5.22871 14.111 5.32064 14.0905 5.32064C14.0749 5.32064 14.0404 5.30411 14.0012 5.28527C13.9207 5.24662 13.8199 5.19825 13.8199 5.26304C13.8199 5.35941 13.9124 5.43101 14.0255 5.43101C14.1387 5.43101 14.1573 5.58152 14.0905 5.58152C14.0673 5.58152 14.0388 5.57156 14.0114 5.562C13.9599 5.54398 13.9124 5.52739 13.9124 5.58152C13.9124 5.61645 13.9325 5.64259 13.9557 5.67285C13.9876 5.71439 14.0255 5.76367 14.0255 5.85404C14.0255 6.01024 13.8571 6.03247 13.9124 5.92895C13.9676 5.82543 13.7207 5.57554 13.7207 5.69785V5.85404C13.7207 5.96447 13.6994 5.97153 13.6662 5.98255C13.6457 5.98933 13.6207 5.99762 13.5933 6.03247C13.5525 6.08447 13.5463 6.11407 13.5429 6.13064C13.5395 6.14705 13.5388 6.1507 13.5095 6.1507C13.4864 6.1507 13.4671 6.11619 13.4412 6.0698C13.4014 5.99859 13.346 5.8994 13.2369 5.85404C13.1333 5.81096 13.1278 5.84222 13.1184 5.89626C13.1114 5.93616 13.1023 5.98849 13.0499 6.03247C12.9711 6.09855 12.9929 6.12596 13.019 6.15874C13.0337 6.1773 13.0499 6.19758 13.0499 6.22758C13.0499 6.31056 12.912 6.14461 12.912 6.03247C12.912 5.92033 12.7553 5.77114 12.7553 5.85404C12.7553 5.93694 12.7553 6.03247 12.6747 6.03247C12.636 6.03247 12.6345 6.06011 12.6326 6.09724C12.6305 6.13724 12.6278 6.18826 12.5773 6.22758C12.5275 6.26633 12.5285 6.24568 12.5309 6.20031C12.5332 6.15688 12.5367 6.09081 12.498 6.03247C12.4494 5.95948 12.49 5.84651 12.5106 5.78906C12.5237 5.75262 12.5287 5.73852 12.498 5.77114C12.4197 5.85408 12.3199 5.85406 12.2524 5.85404H12.2498C12.2158 5.85404 12.1861 5.89727 12.165 5.92801C12.1441 5.95835 12.1316 5.97653 12.1316 5.92895C12.1316 5.83317 12.2316 5.58152 12.4197 5.58152C12.5647 5.58152 12.6376 5.52274 12.7003 5.47222C12.719 5.45716 12.7368 5.44283 12.7553 5.43101C12.8359 5.37958 12.7553 5.31249 12.6747 5.26304C12.6381 5.24058 12.6514 5.16816 12.6768 5.10346C12.7215 5.0747 12.7553 5.0392 12.7553 5.00369C12.7553 4.95922 12.7073 5.02577 12.6768 5.10346C12.6189 5.14072 12.5427 5.16668 12.498 5.16668C12.455 5.16668 12.4819 5.08894 12.5156 4.99168C12.544 4.9095 12.5773 4.81337 12.5773 4.73844C12.5773 4.66708 12.5891 4.60505 12.5974 4.56215C12.608 4.50669 12.6125 4.48321 12.5773 4.51291C12.5336 4.54979 12.3006 4.50923 12.1418 4.48157C12.0737 4.46972 12.0193 4.46024 11.9991 4.46024C11.9694 4.46024 11.9934 4.40445 12.0171 4.34897C12.0471 4.27914 12.0768 4.2098 11.9991 4.25283C11.8774 4.32027 11.63 4.31742 11.4735 4.31562C11.4508 4.31536 11.43 4.31512 11.4118 4.31512C11.3203 4.31512 11.3831 4.23441 11.4168 4.19113C11.436 4.16641 11.4457 4.15391 11.4118 4.17561C11.3184 4.23533 11.2255 4.25283 11.1205 4.25283C11.0732 4.25283 11.0596 4.22476 11.0448 4.19403C11.0267 4.1566 11.0068 4.11523 10.9215 4.11589C10.7661 4.11711 10.7313 4.11468 10.6458 4.04722C10.6013 4.01211 10.6262 3.99147 10.6404 3.97975C10.6535 3.96895 10.6574 3.96571 10.5894 3.96571H10.1679C9.95797 3.96571 10.1686 3.80222 10.2442 3.80222C10.3199 3.80222 10.4076 3.65508 10.2442 3.72115C10.1397 3.76344 10.0278 3.75159 9.89545 3.73758C9.82104 3.72971 9.74019 3.72115 9.65055 3.72115C9.40151 3.72115 9.35377 3.60608 9.50103 3.60608C9.64829 3.60608 9.65697 3.52178 9.42808 3.52178C9.2845 3.52178 9.16644 3.4828 9.07845 3.45375C9.02618 3.43649 8.98453 3.42273 8.95443 3.42273C8.87366 3.42273 8.78633 3.30927 8.95443 3.30927C9.12252 3.30927 9.33814 3.2147 9.15419 3.2147C9.05027 3.2147 8.87696 3.1594 8.72617 3.11129C8.61006 3.07424 8.50731 3.04145 8.45986 3.04145C8.42344 3.04145 8.4804 3.02923 8.55627 3.01294C8.70759 2.98047 8.93415 2.93184 8.64521 2.93184C8.33667 2.93184 8.01337 2.68038 7.79008 2.50671C7.69943 2.43619 7.62525 2.3785 7.57524 2.35566C7.40206 2.27658 7.57524 2.1204 7.62513 2.18524C7.67502 2.25007 8.02432 2.34976 7.87302 2.26287C7.72173 2.17598 7.62513 2.02812 7.57524 1.94807C7.52536 1.86802 7.56377 1.81272 7.62513 1.87574C7.68649 1.93876 7.96968 2.1204 7.96968 2.1204C7.96968 2.1204 7.81816 1.94807 7.69789 1.67806C7.57761 1.40806 7.81816 1.47382 8.02432 1.67806C8.23048 1.8823 8.42375 1.93634 8.52079 1.94807C8.61784 1.9598 8.42375 1.80096 8.23695 1.67806C8.05015 1.55517 8.09255 1.1152 8.23695 1.29087C8.31207 1.38227 8.66797 1.55644 9.01607 1.72678C9.33708 1.88388 9.65145 2.03772 9.73285 2.1204C9.87371 2.26348 9.76037 2.05018 9.63759 1.81912C9.61248 1.77188 9.58699 1.7239 9.56319 1.67806C9.48168 1.52109 9.80929 1.69944 10.182 1.90235C10.4504 2.04847 10.7422 2.20733 10.9215 2.26287C11.045 2.30113 11.1924 2.36239 11.3398 2.42359C11.7034 2.57462 12.0662 2.72533 12.0662 2.5295C12.0662 2.2543 12.3987 1.82368 12.7553 1.67806C12.9816 1.58565 13.0882 1.66919 13.2223 1.77437C13.2995 1.83491 13.3859 1.90262 13.5095 1.94807ZM13.1259 5.17805C13.2064 5.17805 13.1843 4.34182 13.1843 4.34182C13.1843 4.34182 13.4219 4.85462 13.4219 5.07651C13.4219 5.17785 13.4147 5.2078 13.417 5.23703C13.4197 5.2718 13.4357 5.30553 13.4932 5.45721C13.5517 5.6119 13.5129 5.59515 13.4071 5.54946C13.3219 5.5127 13.1933 5.45721 13.0371 5.45721C12.6867 5.45721 13.0454 5.17805 13.1259 5.17805Z" clip-rule="evenodd"/></g></g></svg>

<svg xmlns="http://www.w3.org/2000/svg" fill="none" viewBox="0 0 20 15"><mask id="894_svg__a" width="20" height="15" x="0" y="0" maskUnits="userSpaceOnUse"><path fill="#fff" d="M0 0h20v15H0z"/></mask><g mask="url(#894_svg__a)"><path fill="#F7FCFF" fill-rule="evenodd" d="M0 0h20v15H0V0z" clip-rule="evenodd"/><path fill="#5EAA22" fill-rule="evenodd" d="M0 0v15h20V0H0z" clip-rule="evenodd"/><mask id="894_svg__b" width="20" height="15" x="0" y="0" maskUnits="userSpaceOnUse"><path fill="#fff" fill-rule="evenodd" d="M0 0v15h20V0H0z" clip-rule="evenodd"/></mask><g mask="url(#894_svg__b)"><path fill="#FF8126" d="M16.25 6.25H20V15h-3.75z"/><path fill="#272727" d="M12.5 6.25h3.75V15H12.5z"/><path fill="#C51918" d="M8.75 6.25h3.75V15H8.75z"/><path fill="#FF8126" fill-rule="evenodd" d="M13.51 1.948c.338.124 0 .315 0 .315s-.067-.078-.067-.143c0-.064-.26 0-.393.236-.127.223.107.222.352.221h.04c.14 0 .356-.013.558-.026.175-.011.34-.022.43-.022.196 0 .289 0 .547-.173.168-.113.723-.252 1.136-.355.223-.055.404-.1.46-.125.164-.073-.162.31-.162.31s1.257-.508 1.51-.681c.155-.107.084-.016-.03.133a3.7 3.7 0 00-.223.31c-.106.176.11.008.351-.178.129-.1.265-.205.361-.265.277-.173-.07.296-.223.443-.153.147.359 0 .536-.147.13-.107.011.081-.09.24-.035.057-.069.11-.087.144l-.003.006c-.069.125-.09.165.073.165.167 0-.429.463-.429.463s.178-.028 0 .28c-.105.182-.614.365-1.028.515-.288.103-.53.19-.555.249-.047.104-.51.224-.727.28-.077.02-.123.033-.107.033.061 0 .163.077.053.077-.11 0-.304.062-.304.062s.102 0 0 .145c-.049.07-.134.059-.194.051-.066-.008-.1-.013-.025.094.068.097.092.132.085.142-.01.012-.06-.009-.139-.009a.642.642 0 01-.224-.061.753.753 0 00-.273-.072c-.173 0 0 .123.11.2l.012.009c.097.069.057.068-.119.068h-.057a.911.911 0 01-.199-.019c-.033-.006-.036-.007-.036.019 0 .024-.082-.01-.18-.051-.103-.043-.223-.093-.288-.093-.129 0 .273.266.273.266s-.21-.068-.323-.122c-.064-.031.018.115.092.247.056.1.107.192.087.192a.333.333 0 01-.09-.036c-.08-.038-.181-.087-.181-.022 0 .096.092.168.205.168.114 0 .132.15.066.15-.024 0-.052-.01-.08-.019-.051-.018-.099-.035-.099.02 0 .034.02.06.044.09.032.042.07.092.07.182 0 .156-.169.178-.114.075.056-.104-.191-.353-.191-.231v.156c0 .11-.022.118-.055.129a.134.134 0 00-.073.05.216.216 0 00-.05.098c-.003.016-.004.02-.034.02-.023 0-.042-.035-.068-.081-.04-.071-.095-.17-.204-.216-.104-.043-.11-.012-.119.042-.007.04-.016.092-.068.136-.079.067-.057.094-.031.127.015.018.03.039.03.069 0 .083-.137-.083-.137-.196 0-.112-.157-.26-.157-.178 0 .083 0 .178-.08.178-.039 0-.04.028-.042.065-.002.04-.005.091-.056.13-.05.04-.049.019-.046-.027.002-.043.006-.11-.033-.168-.049-.073-.008-.185.013-.243.013-.036.018-.05-.013-.018-.078.083-.178.083-.246.083h-.002c-.034 0-.064.043-.085.074-.02.03-.033.049-.033.001 0-.096.1-.347.288-.347.145 0 .218-.06.28-.11a.637.637 0 01.055-.041c.08-.051 0-.119-.08-.168-.037-.022-.024-.095.002-.16.045-.028.078-.064.078-.1 0-.044-.048.023-.078.1a.392.392 0 01-.179.064c-.043 0-.016-.078.018-.175a.892.892 0 00.061-.254c0-.07.012-.133.02-.176.011-.055.016-.079-.02-.05-.043.038-.276-.003-.435-.03-.068-.012-.123-.022-.143-.022-.03 0-.006-.056.018-.111.03-.07.06-.14-.018-.096-.122.067-.369.064-.526.063h-.061c-.092 0-.029-.082.005-.125.019-.025.029-.037-.005-.015a.51.51 0 01-.292.077c-.047 0-.06-.028-.075-.059-.018-.037-.038-.079-.123-.078-.156.001-.19-.001-.276-.069-.045-.035-.02-.056-.006-.067.013-.011.017-.014-.05-.014h-.422c-.21 0 0-.164.076-.164s.164-.147 0-.08c-.104.041-.216.03-.349.016-.074-.008-.155-.017-.244-.017-.25 0-.297-.115-.15-.115s.156-.084-.073-.084c-.144 0-.262-.04-.35-.068a.433.433 0 00-.124-.031c-.08 0-.168-.114 0-.114.169 0 .384-.094.2-.094-.104 0-.277-.056-.428-.104-.116-.037-.219-.07-.266-.07-.037 0 .02-.012.096-.028.152-.033.378-.081.09-.081-.31 0-.633-.252-.856-.425a1.43 1.43 0 00-.215-.151c-.173-.08 0-.236.05-.17.05.064.4.164.248.077a.906.906 0 01-.298-.315c-.05-.08-.011-.135.05-.072.061.063.345.244.345.244s-.152-.172-.272-.442c-.12-.27.12-.204.326 0 .206.204.4.258.497.27.097.012-.097-.147-.284-.27-.187-.123-.144-.563 0-.387.075.091.431.265.78.436.32.157.634.31.716.393.14.143.027-.07-.095-.3l-.075-.142c-.081-.157.246.021.619.224.268.146.56.305.74.36.123.04.27.1.418.162.363.15.726.301.726.106 0-.276.333-.706.69-.852.226-.092.332-.009.466.096.078.06.164.129.287.174zm-.384 3.23c.08 0 .058-.836.058-.836s.238.513.238.735c0 .1-.007.13-.005.16.003.035.019.069.076.22.059.155.02.138-.086.092-.085-.036-.214-.092-.37-.092-.35 0 .008-.279.089-.279z" clip-rule="evenodd"/></g></g></svg>
